assets/images/icons/set1/close.svg

<svg xmlns="http://www.w3.org/2000/svg" width="28" height="28" xmlns:xlink="http://www.w3.org/1999/xlink" id="set1-close">
  <use xlink:href="#a5" transform="translate(9.71 9.71)"/>
  <defs>
    <path id="a5" d="M.178898 1.04314L3.20374 4.06799.178898 7.09283c-.2385307.23853-.2385307.62571 0 .86424.238531.23853.625711.23853.864242 0l3.02485-3.02484 3.02484 3.02484c.23853.23853.62571.23853.86424 0 .23853-.23853.23853-.62571 0-.86424L4.93223 4.06799l3.02484-3.02485c.23853-.238531.23853-.625711 0-.864242-.23853-.2385307-.62571-.2385307-.86424 0L4.06799 3.20374 1.04314.178898c-.238531-.2385307-.625711-.2385307-.864242 0-.2385307.238531-.2385307.625711 0 .864242z"/>
  </defs>
</svg>

<svg width="28" height="28" viewBox="0 0 28 28" version="1.1" xmlns="http://www.w3.org/2000/svg" xmlns:xlink="http://www.w3.org/1999/xlink">
<title>@$&#9;</title>
<desc>Created using Figma</desc>
<g id="Canvas" transform="translate(-516 -1774)">
<g id="Icon/Presta/White/Plus">
<g id="Icon/Presta/White/Close">
<g id="Shape">
<use xlink:href="#path0_fill" transform="translate(525.71 1783.71)" fill="#202A37"/>
</g>
</g>
</g>
</g>
<defs>
<path id="path0_fill" d="M 0.178898 1.04314L 3.20374 4.06799L 0.178898 7.09283C -0.0596327 7.33136 -0.0596327 7.71854 0.178898 7.95707C 0.417429 8.1956 0.804609 8.1956 1.04314 7.95707L 4.06799 4.93223L 7.09283 7.95707C 7.33136 8.1956 7.71854 8.1956 7.95707 7.95707C 8.1956 7.71854 8.1956 7.33136 7.95707 7.09283L 4.93223 4.06799L 7.95707 1.04314C 8.1956 0.804609 8.1956 0.417429 7.95707 0.178898C 7.71854 -0.0596327 7.33136 -0.0596327 7.09283 0.178898L 4.06799 3.20374L 1.04314 0.178898C 0.804609 -0.0596327 0.417429 -0.0596327 0.178898 0.178898C -0.0596327 0.417429 -0.0596327 0.804609 0.178898 1.04314Z"/>
</defs>
</svg>
